X: 1
T: Polska efter Mrten Blank
O: Landskap
S: utlrd av Cajsa Ekstav p Ekebyholmskursen 2008
S: efter Mrten Blank
R: Slngpolska
M: 3/4
K: G
L: 1/16
Z: Nils L, 2008-09-03
d2>g2 g2f2 f2e2 | e2fg d4 c4 | B2AB c2c2 B2B2 | A2g2 g2fe d4 |
d2>g2 g2f2 f2e2 | e2fg d4 c4 | B2AB c2c2 B2B2 | (AB)AF G6 :|
D2 |: G2>B2 B2B2 B2B2 | B2d2 (de)dB c4 | A2>c2 c2c2 c2c2 | c2e2 (eg)ec d4 |
G2>B2 B2B2 B2B2 | B2d2 (de)dB c4 | A2>c2 c2c2 c2c2 | c2e2 (eg)ec d4 |
d2>g2 g2f2 f2e2 | e2fg d4 c4 | B2AB c2c2 B2B2 | (AB)AF G8 :|
